docs/svg/tg.svg

<svg xmlns="http://www.w3.org/2000/svg" width="18" height="21" viewBox="0 0 18 21" fill="none">
  <path d="M15.3002 3.44633L2.05498 9.4222C1.15105 9.84701 1.15628 10.437 1.88914 10.7001L5.2897 11.9412L13.1577 6.13316C13.5297 5.86833 13.8696 6.01077 13.5902 6.30096L7.2156 13.032H7.2141L7.2156 13.0329L6.98104 17.134C7.32468 17.134 7.47634 16.9495 7.66908 16.7319L9.32079 14.8527L12.7565 17.8218C13.39 18.23 13.8449 18.0203 14.0026 17.1357L16.2579 4.69972C16.4888 3.61677 15.9046 3.12642 15.3002 3.44633Z" fill="white"/>
</svg>

<svg xmlns="http://www.w3.org/2000/svg" width="18" height="21" fill="none"><path fill="#fff" d="M15.3 3.446 2.055 9.422c-.904.425-.899 1.015-.166 1.278l3.4 1.241 7.869-5.808c.372-.265.712-.122.432.168l-6.374 6.731h-.002.002l-.235 4.102c.344 0 .495-.184.688-.402l1.652-1.88 3.436 2.97c.633.408 1.088.198 1.246-.686L16.258 4.7c.23-1.083-.353-1.574-.958-1.254"/></svg>
